X:653
T: "Der Schleifer"
N: Z1334
O: Europa, Mitteleuropa, Schweiz
R: Zech -, Schalks - Lied
M: 2/4
L: 1/16
K: A
AB | c2cBA2AB | c2cBA2
B2 | c2d2e2dc | B2B2B2z2 |
B2BcBcBd | B2c2B2
AB | c2e2c2A2 | B2BcB2
AB | c2ecA2B2 | c2ecA2

@@@ Tune index: 10411
